X: 41017
T: Trip To Herve's, The
R: reel
M: 4/4
K: Dmajor
FAAF ABde|faaf dAFA|BBdB AFDE|FEED EFDE|
FAAF ABde|faaf dafd|ABBd AFEA|1 EFFE DBAG:|2 EFFE DEFA||
AB2c d2BA|EFFE FGFE|DEFG A2DE|FGAA FGAF|
ABBc d2BA|EFFE FGFE|DEFG ABAG|FAEG FDEF|
GABc d2BA|EFFE FGFE|DEFG A2DE|FGAA FGA2|
B2FA AEFF|DEED EFGA|BBFA AEFF|DEED EFGB||

